images/icons/search.svg

<?xml version="1.0" encoding="UTF-8" standalone="no"?>
<svg width="40px" height="40px" viewBox="0 0 40 40" version="1.1" xmlns="http://www.w3.org/2000/svg" xmlns:xlink="http://www.w3.org/1999/xlink" xmlns:sketch="http://www.bohemiancoding.com/sketch/ns">
    <defs></defs>
    <g id="search" sketch:type="MSLayerGroup">
        <path d="M39.9365854,36.0728155 L29.5463415,25.7330097 C31.497561,23.0533981 32.6585366,19.7719417 32.6585366,16.2184466 C32.6585366,7.27669903 25.3512195,0.00485436893 16.3658537,0.00485436893 C7.37073171,-0.00485436893 0.0634146341,7.26699029 0.0634146341,16.2087379 C0.0634146341,25.1504854 7.37073171,32.4223301 16.3560976,32.4223301 C19.760878,32.4223301 22.9316098,31.3737864 25.5462439,29.5873786 L35.9950244,39.9951456 L39.9365854,36.0728155 L39.9365854,36.0728155 Z M4.84390244,16.2087379 C4.84390244,9.88834951 10.004878,4.75242718 16.3560976,4.75242718 C22.7073171,4.75242718 27.8780488,9.89805825 27.8780488,16.2184466 C27.8780488,22.538932 22.7073171,27.6845631 16.3560976,27.6845631 C10.004878,27.6747573 4.84390244,22.5291262 4.84390244,16.2087379 L4.84390244,16.2087379 Z" id="search_1_" sketch:type="MSShapeGroup" fill="currentColor"></path>
    </g>
</svg>

<svg width="40" height="40" viewBox="0 0 40 40" xmlns="http://www.w3.org/2000/svg"><path d="M39.937 36.073l-10.39-10.34c1.95-2.68 3.112-5.96 3.112-9.515 0-8.94-7.31-16.213-16.294-16.213C7.37-.005.063 7.267.063 16.21c0 8.94 7.308 16.212 16.293 16.212 3.405 0 6.576-1.048 9.19-2.835l10.45 10.408 3.94-3.922zM4.844 16.21c0-6.322 5.16-11.458 11.512-11.458 6.35 0 11.522 5.146 11.522 11.466 0 6.32-5.17 11.467-11.522 11.467-6.35-.01-11.512-5.156-11.512-11.476z" fill="currentColor"/></svg>
